X:109
T:The Rainy Night Under the Bridge
B:Terry "Cuz" Teahan "Sliabh Luachra on Parade" 1980
Z:Patrick Cavanagh
M:2/4
L:1/8
R:Polka
K:D
| B2 BA | FB AF | B2 BA | Be ed | 
B2 BA | FB AF | B/c/d/B/ AF | FE E2 :| 
| fe ed/e/ | fd de | fe ed/e/ | fb ba | 
fg/f/ ef | df ed | B/c/d/B/ AF | FE E2 :|| 

